X:1
T:Title
%%score { ( 1 4 ) | ( 2 3 ) }
L:1/8
Q:1/4=100
M:6/8
K:G
V:1 treble nm="Grand Piano"
V:4 treble 
V:2 bass 
V:3 bass 
V:1
 [DB]3 c3 | B6 | [FA][FA][FA] [FA][GB][Ac] | [GB]6 | [Ec][Ec][Ec] [Ec][EG][EA] | BBB B3 | %6
w: J.~H.~Rosecrans *||||||
 [FA][FA][FA] [DFA][A,^CE][A,DF] |[M:13/16] [A,EG][A,DF][G,^CE]D-<D-[Dc]3/2 |[M:3/4] BB BA BA | %9
w: |||
 G6 | dd dd Bc | dB c d3 | [Ac][Ac] [Ac][Ac] [FA][GB] | [Ac][FA] [GB] [Ac]3 | BB B B2 [FA] | %15
w: ||||||
 GG G [^DF]3 | %16
w: |
[M:7/8] z c>E E/DB>AA/[Q:1/4=99][Q:1/4=97][Q:1/4=96][Q:1/4=94][Q:1/4=93][Q:1/4=91][Q:1/4=90][Q:1/4=88][Q:1/4=87][Q:1/4=85][Q:1/4=84][Q:1/4=82][Q:1/4=81][Q:1/4=79][Q:1/4=78][Q:1/4=76] | %17
w: |
[M:3/4] [B,G]6 |] %18
w: |
V:2
 z3 E3 | D6 | [D,D][D,D][D,D] [D,D][D,D][D,D] | [G,D]6 | [C,G,][C,G,][C,G,] [C,G,][C,G,][C,G,] | %5
 [G,D][G,DG][G,DG] [G,DG]3 | [D,D][D,D][D,D] A,,A,,A,, | %7
[M:13/16] z/ z/ z/ z/ z D,/-D,/-D,/-D,-<D, |[M:3/4] [G,D][G,D] [G,D][D,F,C] [D,G,D][D,F,C] | %9
 [G,B,]6 | [G,B,G][G,B,G] [G,B,G][G,B,G] [G,G][G,A,G] | [G,B,G][G,G] [G,A,G] [G,B,G]3 | %12
 [D,D][D,D] [D,D][D,D] [D,D][D,D] | [D,D][D,D] [D,D] [D,D]3 | %14
 [G,DG][G,DG] [G,DG] [G,DG]2[K:bass] [D,C] | [E,B,E][E,B,E] [E,B,E] [B,,B,]3 | %16
[M:7/8] [C,G,]2- [C,G,]/[C,G,C]/ [C,G,C]/B,D>[D,F,C][D,F,C]/ |[M:3/4] [G,,G,]6 |] %18
V:3
 G,6- | G,6 | x6 | x6 | x6 | x6 | x6 |[M:13/16] A,,A,,A,, z/ z/ z A,3/2 |[M:3/4] x6 | x6 | x6 | %11
 x6 | x6 | x6 | x5[K:bass] x | x6 |[M:7/8] z z z z/ [D,G,]/- [D,G,]2 z |[M:3/4] x6 |] %18
V:4
 x6 | x6 | x6 | x6 | x6 | x6 | x6 |[M:13/16] z/ z/ z/ z/ z F,-<F, z/ z |[M:3/4] x6 | x6 | x6 | x6 | %12
 x6 | x6 | x6 | x6 |[M:7/8] E3 z z z2 |[M:3/4] x6 |] %18

